X: 10058
T: LINNETT'S WALTZ
C: Bob McQuillen 11 Nov 93
B: Bob's Note Book 10 #58
%R: waltz
Z: 2020 John Chambers <jc:trillian.mit.edu>
M: 3/4
L: 1/8
K: D
DF \
| "D"A2 A2 BA | F2 D2 DF | A2 F3 A | d4 cd | "A7"e2 ef gf | f2 e2 de | f2 fa gf | e4 FG |
| "D"A2 AB AG | F2 D2 DF | A2 F3 A | "G"B4 GA | B2 GA Bc | "D"d2 A2 FA | "A7"B2 d2 c2 | "D"d4 :|
|: de \
| "D"f2 d3 B | A4 de | f2 d3 B | A4 AG | F2 A2 dB | "Bm"A2 d2 de | "G6"f2 fe df | "A7"e3 c de |
| "D"f2 d2 B2 | A3 F A2 | "G"B2 G3 B | "D"A4 FA | "G"B2 Bc de | "D"d2 A2 fa | "A7"g2 f2 e2 | "D"d4 :|
%%begintext align
%% Linnett Miller is a
%% lovely girl who lives over in East Alstead, NH. She's
%% Randy and Kathy Miller's daughter, and she's a sweetheart
%% like her mom and as nice as her dad, and that gets
%% her this, with love from Bob--
%%endtext

%%sep 1 1 500

%%sep 1 1 500

